X:1
T:Title
%%score { ( 1 4 ) | ( 2 3 ) }
L:1/8
Q:1/4=116
M:3/4
K:Eb
V:1 treble nm="Grand Piano"
V:4 treble 
V:2 bass 
V:3 bass 
V:1
 [EG]4 [FA]2 | [GB]4 [EG]2 | [DF]2 [EG]2 [FA]2 | G6 | B4 c2 | B4 [Ge]2 | [Fd]2 [Ge]2 [Bf]2 | %7
w: Pemberton~Pierce *|||||||
 [Ge]6 | G4 B2 | c2 A2 c2 | d2 c2 B2 | e6 | e2 d2 [Ec]2 | [B,B]4 [Cc]2 | E2- [EA]2 [A,DF]2 | %15
w: ||||||||
 [G,E]6 |] %16
w: |
V:2
 [E,B,]4 [E,B,]2 | [E,B,]4 [E,B,]2 | [B,,B,]4 [E,B,]2 | [E,B,E]6 | [E,G,E]4 [E,A,E]2 | %5
 [E,G,E]4 [E,B,]2 | [B,,B,]4 [B,,B,]2 | [E,B,]6 | [E,B,E]4[K:treble] [G,B,E]2 | z2 C2 [A,E]2 | %10
 F2 z2 z2 | [CEG]6 | C2 z2 z2 | z2 D2 [A,,A,]2 | z2 C2 B,,2 | E,6 |] %16
V:3
 x6 | x6 | x6 | x6 | x6 | x6 | x6 | x6 | x4[K:treble] x2 | [A,E]4 z2 | [B,A]2- [B,EA]2 [B,DA]2 | %11
 x6 | [A,E]2- [A,B,E]2 [A,,A,]2 | G,,4 z2 | B,,4 z2 | x6 |] %16
V:4
 x6 | x6 | x6 | x6 | x6 | x6 | x6 | x6 | x6 | x6 | x6 | x6 | x6 | E2 z2 z2 | [B,G]2 z2 z2 | x6 |] %16

